X: 7
T:Sportman's Hornpipe
M:4/4
L:1/8
R:Hornpipe
B:Northern Frisk, Jamie Knowles
N:Posted to tradtunes 10/02/2001
Z:Steve Mansfield February 2001
K:Em
c2 cA B2 BA | GABc dBGB | c2 cA B2 BA | E2A2 A2 AB |
c2 cA B2 BA | GABc dBGB | gfge dBAG | E2 A2 A4 ::
ABcd efge | a/g/f/e/ df edcB | ABcd efge | a/g/f/e/ df e2 (3efg |
 a2af g2ge | c2ce dBGB | cB (2cBA BA (3BAG | E2A2 A4 :|

